lib/svgs/circle-user-o.svg

<svg xmlns="http://www.w3.org/2000/svg" viewBox="0 0 20 20">
    <path fill="#000" fill-rule="evenodd" d="M10.166 1a9.167 9.167 0 1 0 .001 18.333A9.167 9.167 0 0 0 10.166 1M4.879 16.11c.012-.03.031-.055.038-.087l.178-.87a.782.782 0 0 1 .405-.328l3.14-1.12a1.35 1.35 0 0 0 .894-1.268v-.459c0-.611-.271-1.185-.743-1.574a2.145 2.145 0 0 1-.79-1.656V7.433a2.167 2.167 0 0 1 4.33 0v1.315c0 .636-.286 1.238-.784 1.652a2.055 2.055 0 0 0-.747 1.588v.449c0 .568.359 1.078.894 1.269l3.138 1.119a.781.781 0 0 1 .406.329l.199.971a7.923 7.923 0 0 1-10.558-.015m11.564-1.054l-.048-.232a.57.57 0 0 0-.051-.147 1.976 1.976 0 0 0-1.108-.983l-3.138-1.118a.148.148 0 0 1-.098-.139v-.449c0-.258.114-.5.313-.665a3.342 3.342 0 0 0 1.219-2.575V7.433a3.37 3.37 0 0 0-6.731 0v1.315a3.34 3.34 0 0 0 1.227 2.582c.195.16.306.397.306.648v.459a.15.15 0 0 1-.098.139l-3.139 1.118a1.98 1.98 0 0 0-1.109.984.65.65 0 0 0-.051.146l-.047.232a7.918 7.918 0 0 1-1.69-4.889A7.976 7.976 0 0 1 10.166 2.2a7.976 7.976 0 0 1 7.967 7.967 7.918 7.918 0 0 1-1.69 4.889"/>
</svg>

<?xml version="1.0" encoding="UTF-8" standalone="no"?>
<svg width="20px" height="20px" viewBox="0 0 20 20" version="1.1" xmlns="http://www.w3.org/2000/svg" xmlns:xlink="http://www.w3.org/1999/xlink">
    <defs></defs>
    <g id="Icons" stroke="none" stroke-width="1" fill="none" fill-rule="evenodd">
        <g id="Web" transform="translate(-97.000000, -2246.000000)" fill="#000000">
            <g id="user/circle-user-o" transform="translate(97.000000, 2246.000000)">
                <path d="M10.166,1 C5.104,1 1,5.104 1,10.167 C1,15.23 5.104,19.334 10.166,19.334 C15.229,19.334 19.333,15.23 19.333,10.167 C19.333,5.104 15.229,1 10.166,1 L10.166,1 L10.166,1 M4.879,16.11 C4.891,16.08 4.91,16.055 4.917,16.023 L5.095,15.153 C5.188,15.001 5.33,14.886 5.5,14.825 L8.64,13.705 C9.175,13.514 9.534,13.004 9.534,12.437 L9.534,11.978 C9.534,11.367 9.263,10.793 8.791,10.404 C8.289,9.99 8.001,9.386 8.001,8.748 L8.001,7.433 C8.001,6.238 8.972,5.267 10.166,5.267 C11.36,5.267 12.331,6.238 12.331,7.433 L12.331,8.748 C12.331,9.384 12.045,9.986 11.547,10.4 C11.072,10.793 10.8,11.372 10.8,11.988 L10.8,12.437 C10.8,13.005 11.159,13.515 11.694,13.706 L14.832,14.825 C15.003,14.886 15.144,15.001 15.238,15.154 L15.437,16.125 C14.031,17.371 12.188,18.134 10.166,18.134 C8.137,18.134 6.287,17.364 4.879,16.11 L4.879,16.11 L4.879,16.11 M16.443,15.056 L16.395,14.824 C16.385,14.774 16.368,14.724 16.344,14.677 C16.114,14.216 15.72,13.867 15.236,13.694 L12.098,12.576 C12.039,12.555 12,12.499 12,12.437 L12,11.988 C12,11.73 12.114,11.488 12.313,11.323 C13.087,10.681 13.532,9.742 13.532,8.748 L13.532,7.433 C13.532,5.577 12.022,4.067 10.166,4.067 C8.31,4.067 6.801,5.577 6.801,7.433 L6.801,8.748 C6.801,9.746 7.248,10.687 8.028,11.33 C8.223,11.49 8.334,11.727 8.334,11.978 L8.334,12.437 C8.334,12.499 8.294,12.555 8.236,12.576 L5.097,13.694 C4.612,13.868 4.218,14.217 3.988,14.678 C3.965,14.725 3.948,14.774 3.937,14.824 L3.89,15.056 C2.835,13.705 2.2,12.01 2.2,10.167 C2.2,5.774 5.774,2.2 10.166,2.2 C14.559,2.2 18.133,5.774 18.133,10.167 C18.133,12.01 17.498,13.705 16.443,15.056 L16.443,15.056 L16.443,15.056" id="Shape"></path>
            </g>
        </g>
    </g>
</svg>
